images/logos/tridentu.svg

<svg width="196" height="49" viewBox="0 0 196 49" fill="none" xmlns="http://www.w3.org/2000/svg">
<path d="M6.51953 12.4829L5.41016 15.0005H2.71191L0.780273 2.9292L6.51953 12.4829ZM19.2217 12.3433L17.627 15.0005H10.3555L8.76758 12.3579L14.0029 0.47998L19.2217 12.3433ZM25.2656 15.0005H22.5684L21.4688 12.5024L27.1914 2.96436L25.2656 15.0005Z" fill="#00BFFF"/>
<path d="M176.984 37.1978C176.984 39.6644 177.598 41.5049 178.824 42.7183C180.051 43.9183 181.711 44.5181 183.805 44.5181C185.898 44.518 187.558 43.9181 188.784 42.7183C190.011 41.5049 190.624 39.6644 190.624 37.1978V20.1577H195.124V37.2378C195.124 39.3977 194.698 41.3515 193.845 43.0981C193.005 44.8314 191.744 46.2111 190.064 47.2378C188.398 48.2511 186.311 48.7583 183.805 48.7583C181.311 48.7583 179.224 48.2511 177.544 47.2378C175.878 46.2246 174.618 44.8516 173.765 43.1187C172.925 41.372 172.505 39.4111 172.505 37.2378V20.1577H176.984V37.1978ZM16.2539 48.1587H11.7734V28.8062L16.2539 25.4321V48.1587ZM39.416 20.1577C41.3626 20.1577 43.0428 20.4983 44.4561 21.1782C45.8827 21.8449 46.9825 22.7986 47.7559 24.0386C48.5425 25.2786 48.9365 26.7519 48.9365 28.4585C48.9365 29.845 48.6361 31.0716 48.0361 32.1382C47.4495 33.2047 46.6231 34.0846 45.5566 34.7778C44.49 35.4578 43.2563 35.9177 41.8564 36.1577L50.2959 48.1587H44.876L37.1367 36.8579H33.3164V48.1587H28.8359V33.1577H34.8135V33.1382H38.6768C40.4899 33.1381 41.8966 32.7513 42.8965 31.978C43.9097 31.2047 44.416 30.0976 44.416 28.6577C44.4159 27.1779 43.9632 26.0243 43.0566 25.1978C42.1633 24.3711 40.8094 23.9585 38.9961 23.9585H28.8359V20.1577H39.416ZM59.8789 48.1587H55.3984V20.1577H59.8789V48.1587ZM75.9561 20.1577C78.7426 20.1578 81.2027 20.7586 83.3359 21.9585C85.4691 23.1451 87.136 24.7914 88.3359 26.8979C89.5493 29.0046 90.1553 31.4316 90.1553 34.1782C90.1553 36.2182 89.8085 38.0979 89.1152 39.8179C88.4352 41.5245 87.462 42.9978 86.1953 44.2378C84.9286 45.4778 83.4286 46.4449 81.6953 47.1382C79.9622 47.8181 78.0491 48.1586 75.9561 48.1587H67.1953V20.1577H75.9561ZM113.812 24.1187H100.191V31.6782H111.951V35.4185H100.191V44.1577H113.932V48.1587H95.7109V20.1577H113.812V24.1187ZM138.623 40.4985V20.1577H142.983V48.1587H138.703L124.583 27.5786V48.1587H120.203V20.1577H124.483L138.623 40.4985ZM167.962 24.2583H160.082V48.1587H155.602V24.2583H147.722V20.1577H167.962V24.2583ZM71.6758 43.978H75.416C76.9225 43.978 78.2891 43.7578 79.5156 43.3179C80.7556 42.8645 81.8153 42.2112 82.6953 41.3579C83.5886 40.5046 84.2759 39.4778 84.7559 38.2778C85.2358 37.0646 85.4756 35.6981 85.4756 34.1782C85.4756 32.1383 85.0557 30.3851 84.2158 28.9185C83.3892 27.4385 82.2225 26.3047 80.7158 25.5181C79.2092 24.7181 77.4425 24.3179 75.416 24.3179H71.6758V43.978ZM24.1338 24.2583H3.89355V20.1577H24.1338V24.2583Z" fill="black"/>
</svg>

<svg xmlns="http://www.w3.org/2000/svg" width="196" height="49" fill="none" viewBox="0 0 196 49"><path fill="#00bfff" d="M6.52 12.483 5.41 15H2.712L.78 2.929zm12.702-.14-1.595 2.658h-7.271l-1.588-2.643L14.003.48zm6.044 2.658h-2.698l-1.1-2.499 5.723-9.538z"/><path fill="#000" d="M176.984 37.198q0 3.7 1.84 5.52 1.84 1.8 4.981 1.8t4.979-1.8q1.84-1.82 1.84-5.52v-17.04h4.5v17.08q0 3.24-1.279 5.86-1.26 2.6-3.781 4.14-2.5 1.52-6.259 1.52-3.741 0-6.261-1.52a9.8 9.8 0 0 1-3.779-4.12q-1.26-2.62-1.26-5.88v-17.08h4.479zm-160.73 10.96h-4.48V28.807l4.48-3.374zm23.162-28q2.92 0 5.04 1.02 2.14 1 3.3 2.86 1.18 1.86 1.18 4.42 0 2.08-.9 3.68-.88 1.6-2.48 2.64-1.6 1.02-3.7 1.38l8.44 12h-5.42l-7.74-11.3h-3.82v11.3h-4.48v-15h5.977v-.02h3.864q2.72 0 4.22-1.16 1.52-1.16 1.519-3.32 0-2.22-1.36-3.46-1.34-1.24-4.06-1.24h-10.16v-3.8zm20.463 28h-4.48v-28h4.48zm16.077-28q4.18 0 7.38 1.8a12.8 12.8 0 0 1 5 4.94q1.82 3.16 1.82 7.28-.001 3.06-1.04 5.64-1.02 2.56-2.92 4.42t-4.5 2.9q-2.6 1.02-5.74 1.02h-8.76v-28zm37.856 3.96h-13.621v7.56h11.76v3.74h-11.76v8.74h13.741v4H95.711v-28h18.101zm24.811 16.38v-20.34h4.36v28h-4.28l-14.12-20.58v20.58h-4.38v-28h4.28zm29.339-16.24h-7.88v23.9h-4.48v-23.9h-7.88v-4.1h20.24zm-96.286 19.72h3.74q2.26 0 4.1-.66 1.86-.68 3.18-1.96a8.6 8.6 0 0 0 2.06-3.08q.72-1.82.72-4.1 0-3.06-1.26-5.26a8.36 8.36 0 0 0-3.5-3.4q-2.26-1.2-5.3-1.2h-3.74zm-47.542-19.72H3.894v-4.1h20.24z"/></svg>
